apps/www/public/images/logos/publicity/fixed-width/mobbin.svg

<svg width="180" height="60" viewBox="0 0 180 60" fill="none" xmlns="http://www.w3.org/2000/svg">
<path d="M68.0323 29.4454H59.0536V38.3228H68.0323V29.4454ZM32.1196 38.3228V30.5069L41.0492 21.6772H48.9535V29.4931L40.024 38.3228H32.1196Z" fill="#7E7E7E"/>
<path d="M45.5864 38.3228V30.5069L54.516 21.6772H62.4203V29.4931L53.4908 38.3228H45.5864ZM86.7296 33.3715L82.1354 22.9294H78.4242V36.8625H81.1957L81.2018 27.4729L85.3934 36.8625H88.065L92.2627 27.4752V36.8625H95.0342V22.9294H91.3215L86.7296 33.3715ZM101.728 26.4242C97.1081 26.4242 96.1388 29.2812 96.1388 31.6767C96.1388 35.3364 97.985 37.1144 101.782 37.1144C105.581 37.1144 107.39 35.3515 107.39 31.7258C107.39 28.1001 105.485 26.422 101.73 26.422L101.728 26.4242ZM99.0193 31.6275C99.0193 29.7965 99.4369 28.8666 101.728 28.8666C103.86 28.8666 104.51 29.543 104.51 31.7644C104.51 33.9851 103.868 34.6774 101.764 34.6774C99.6609 34.6774 99.0185 33.9662 99.0185 31.629V31.6275H99.0193ZM114.663 26.4416H114.609C112.945 26.4492 111.646 27.6212 111.304 28.1531V22.9294H108.497V36.8625H111.304V36.7679L111.319 35.4393C111.775 36.1755 112.996 37.1167 114.593 37.1167C118.083 37.1167 119.573 35.5505 119.573 31.8809C119.573 28.2114 118.059 26.4432 114.663 26.4432V26.4416ZM116.747 31.6767C116.747 34.4489 115.454 34.6736 113.891 34.6736C112.328 34.6736 111.071 34.4527 111.071 31.7432C111.071 29.683 111.872 28.8802 113.927 28.8802C115.983 28.8802 116.747 29.5839 116.747 31.6751V31.6767ZM126.852 26.4416H126.798C125.135 26.4492 123.835 27.6212 123.493 28.1531V22.9294H120.686V36.8625H123.493V36.7679L123.508 35.4393C123.964 36.1732 125.184 37.1144 126.782 37.1144C130.272 37.1144 131.762 35.5482 131.762 31.8787C131.762 28.2099 130.248 26.4416 126.852 26.4416ZM128.936 31.6767C128.936 34.4489 127.643 34.6736 126.08 34.6736C124.517 34.6736 123.26 34.4527 123.26 31.7432C123.26 29.683 124.061 28.8802 126.117 28.8802C128.172 28.8802 128.936 29.5839 128.936 31.6751V31.6767ZM135.759 26.6611H132.951V36.8625H135.759V26.6611ZM143.283 26.4379C141.725 26.4379 140.465 27.4048 140.061 28.1531V26.6611H137.254V36.8625H140.061V30.9178C140.061 29.5846 140.462 28.9483 142.738 28.9483C144.462 28.9483 145.074 29.4802 145.074 30.9836V36.861H147.881V31.5912C147.881 27.7574 146.721 26.4568 143.283 26.4356V26.4379ZM135.759 22.9294H132.951V25.5723H135.759V22.9294Z" fill="#7E7E7E"/>
</svg>

<svg xmlns="http://www.w3.org/2000/svg" width="180" height="60" fill="none" viewBox="0 0 180 60"><path fill="#7e7e7e" d="M68.032 29.445h-8.978v8.878h8.978zM32.12 38.323v-7.816l8.93-8.83h7.904v7.816l-8.93 8.83z"/><path fill="#7e7e7e" d="M45.586 38.323v-7.816l8.93-8.83h7.904v7.816l-8.93 8.83zM86.73 33.37 82.135 22.93h-3.71v13.933h2.77l.007-9.39 4.191 9.39h2.672l4.198-9.387v9.387h2.771V22.93h-3.713zm14.998-6.947c-4.62 0-5.59 2.857-5.59 5.253 0 3.66 1.847 5.437 5.644 5.437 3.799 0 5.608-1.762 5.608-5.388s-1.905-5.304-5.66-5.304zm-2.709 5.204c0-1.831.418-2.761 2.709-2.761 2.132 0 2.782.676 2.782 2.897s-.642 2.913-2.746 2.913-2.745-.71-2.745-3.048zm15.644-5.186h-.054c-1.664.007-2.963 1.18-3.305 1.711V22.93h-2.807v13.933h2.807v-.094l.015-1.329c.456.736 1.677 1.678 3.274 1.678 3.49 0 4.98-1.566 4.98-5.236s-1.514-5.438-4.91-5.438zm2.084 5.235c0 2.772-1.293 2.997-2.856 2.997s-2.82-.221-2.82-2.93c0-2.061.801-2.864 2.856-2.864 2.056 0 2.82.704 2.82 2.795zm10.105-5.235h-.054c-1.663.007-2.963 1.18-3.305 1.711V22.93h-2.807v13.933h2.807v-.094l.015-1.329c.456.734 1.676 1.675 3.274 1.675 3.49 0 4.98-1.566 4.98-5.235s-1.514-5.437-4.91-5.437m2.084 5.235c0 2.772-1.293 2.997-2.856 2.997s-2.82-.221-2.82-2.93c0-2.061.801-2.864 2.857-2.864s2.819.704 2.819 2.795zm6.823-5.016h-2.808v10.201h2.808zm7.524-.223c-1.558 0-2.818.967-3.222 1.715v-1.492h-2.807v10.201h2.807v-5.944c0-1.333.401-1.97 2.677-1.97 1.724 0 2.336.532 2.336 2.036v5.877h2.807v-5.27c0-3.834-1.16-5.134-4.598-5.155zm-7.524-3.509h-2.808v2.643h2.808z"/></svg>
